images/16758921.svg

<?xml version="1.0" encoding="UTF-8"?>
<svg xmlns="http://www.w3.org/2000/svg" xmlns:xlink="http://www.w3.org/1999/xlink" width="300pt" height="300pt" viewBox="0 0 300 300" version="1.1">
<defs>
<g>
<symbol overflow="visible" id="glyph0-0">
<path style="stroke:none;" d="M 0.59375 2.125 L 0.59375 -8.46875 L 6.59375 -8.46875 L 6.59375 2.125 Z M 1.265625 1.453125 L 5.9375 1.453125 L 5.9375 -7.78125 L 1.265625 -7.78125 Z M 1.265625 1.453125 "/>
</symbol>
<symbol overflow="visible" id="glyph0-1">
<path style="stroke:none;" d="M 4.734375 -7.953125 C 3.867188 -7.953125 3.179688 -7.628906 2.671875 -6.984375 C 2.171875 -6.347656 1.921875 -5.472656 1.921875 -4.359375 C 1.921875 -3.265625 2.171875 -2.394531 2.671875 -1.75 C 3.179688 -1.113281 3.867188 -0.796875 4.734375 -0.796875 C 5.585938 -0.796875 6.265625 -1.113281 6.765625 -1.75 C 7.273438 -2.394531 7.53125 -3.265625 7.53125 -4.359375 C 7.53125 -5.472656 7.273438 -6.347656 6.765625 -6.984375 C 6.265625 -7.628906 5.585938 -7.953125 4.734375 -7.953125 Z M 4.734375 -8.90625 C 5.953125 -8.90625 6.925781 -8.492188 7.65625 -7.671875 C 8.394531 -6.847656 8.765625 -5.742188 8.765625 -4.359375 C 8.765625 -2.984375 8.394531 -1.882812 7.65625 -1.0625 C 6.925781 -0.238281 5.953125 0.171875 4.734375 0.171875 C 3.503906 0.171875 2.519531 -0.238281 1.78125 -1.0625 C 1.039062 -1.882812 0.671875 -2.984375 0.671875 -4.359375 C 0.671875 -5.742188 1.039062 -6.847656 1.78125 -7.671875 C 2.519531 -8.492188 3.503906 -8.90625 4.734375 -8.90625 Z M 4.734375 -8.90625 "/>
</symbol>
</g>
</defs>
<g id="surface44785">
<rect x="0" y="0" width="300" height="300" style="fill:rgb(100%,100%,100%);fill-opacity:1;stroke:none;"/>
<path style="fill:none;stroke-width:1.2;stroke-linecap:butt;stroke-linejoin:miter;stroke:rgb(0%,0%,0%);stroke-opacity:1;stroke-miterlimit:10;" d="M 143.25 183.84375 L 163.855469 161.28125 "/>
<path style="fill:none;stroke-width:1.2;stroke-linecap:butt;stroke-linejoin:miter;stroke:rgb(0%,0%,0%);stroke-opacity:1;stroke-miterlimit:10;" d="M 163.855469 161.28125 L 193.695312 167.84375 "/>
<path style="fill:none;stroke-width:1.2;stroke-linecap:butt;stroke-linejoin:miter;stroke:rgb(0%,0%,0%);stroke-opacity:1;stroke-miterlimit:10;" d="M 163.855469 161.28125 L 154.617188 132.15625 "/>
<path style="fill:none;stroke-width:1.2;stroke-linecap:butt;stroke-linejoin:miter;stroke:rgb(0%,0%,0%);stroke-opacity:1;stroke-miterlimit:10;" d="M 193.695312 167.84375 L 214.300781 145.28125 "/>
<path style="fill:none;stroke-width:1.2;stroke-linecap:butt;stroke-linejoin:miter;stroke:rgb(0%,0%,0%);stroke-opacity:1;stroke-miterlimit:10;" d="M 193.695312 167.84375 L 198.316406 182.40625 "/>
<path style="fill:none;stroke-width:1.2;stroke-linecap:butt;stroke-linejoin:miter;stroke:rgb(100%,0%,0%);stroke-opacity:1;stroke-miterlimit:10;" d="M 198.316406 182.40625 L 202.933594 196.972656 "/>
<path style="fill:none;stroke-width:1.2;stroke-linecap:butt;stroke-linejoin:miter;stroke:rgb(0%,0%,0%);stroke-opacity:1;stroke-miterlimit:10;" d="M 214.300781 145.28125 L 205.066406 116.15625 "/>
<path style="fill:none;stroke-width:1.2;stroke-linecap:butt;stroke-linejoin:miter;stroke:rgb(0%,0%,0%);stroke-opacity:1;stroke-miterlimit:10;" d="M 220.230469 140.195312 L 212.84375 116.894531 "/>
<path style="fill:none;stroke-width:1.2;stroke-linecap:butt;stroke-linejoin:miter;stroke:rgb(0%,0%,0%);stroke-opacity:1;stroke-miterlimit:10;" d="M 244.144531 151.847656 L 214.300781 145.28125 "/>
<path style="fill:none;stroke-width:1.2;stroke-linecap:butt;stroke-linejoin:miter;stroke:rgb(0%,0%,0%);stroke-opacity:1;stroke-miterlimit:10;" d="M 205.066406 116.15625 L 225.671875 93.59375 "/>
<path style="fill:none;stroke-width:1.2;stroke-linecap:butt;stroke-linejoin:miter;stroke:rgb(0%,0%,0%);stroke-opacity:1;stroke-miterlimit:10;" d="M 225.671875 93.59375 L 255.511719 100.160156 "/>
<path style="fill:none;stroke-width:1.2;stroke-linecap:butt;stroke-linejoin:miter;stroke:rgb(0%,0%,0%);stroke-opacity:1;stroke-miterlimit:10;" d="M 227.109375 101.273438 L 250.984375 106.523438 "/>
<path style="fill:none;stroke-width:1.2;stroke-linecap:butt;stroke-linejoin:miter;stroke:rgb(0%,0%,0%);stroke-opacity:1;stroke-miterlimit:10;" d="M 255.511719 100.160156 L 264.75 129.285156 "/>
<path style="fill:none;stroke-width:1.2;stroke-linecap:butt;stroke-linejoin:miter;stroke:rgb(0%,0%,0%);stroke-opacity:1;stroke-miterlimit:10;" d="M 264.75 129.285156 L 244.144531 151.847656 "/>
<path style="fill:none;stroke-width:1.2;stroke-linecap:butt;stroke-linejoin:miter;stroke:rgb(0%,0%,0%);stroke-opacity:1;stroke-miterlimit:10;" d="M 257.378906 126.691406 L 240.894531 144.742188 "/>
<path style="fill:none;stroke-width:1.2;stroke-linecap:butt;stroke-linejoin:miter;stroke:rgb(100%,0%,0%);stroke-opacity:1;stroke-miterlimit:10;" d="M 202.933594 196.972656 L 192.628906 208.253906 "/>
<path style="fill:none;stroke-width:1.2;stroke-linecap:butt;stroke-linejoin:miter;stroke:rgb(0%,0%,0%);stroke-opacity:1;stroke-miterlimit:10;" d="M 192.628906 208.253906 L 182.328125 219.53125 "/>
<path style=" stroke:none;fill-rule:nonzero;fill:rgb(100%,100%,100%);fill-opacity:1;" d="M 197.933594 189.972656 L 207.933594 189.972656 L 207.933594 203.972656 L 197.933594 203.972656 Z M 197.933594 189.972656 "/>
<g style="fill:rgb(100%,0%,0%);fill-opacity:1;">
  <use xlink:href="#glyph0-1" x="197.933594" y="201.111328"/>
</g>
<path style="fill:none;stroke-width:1.2;stroke-linecap:butt;stroke-linejoin:miter;stroke:rgb(0%,0%,0%);stroke-opacity:1;stroke-miterlimit:10;" d="M 154.617188 132.15625 L 124.777344 125.589844 "/>
<path style="fill:none;stroke-width:1.2;stroke-linecap:butt;stroke-linejoin:miter;stroke:rgb(0%,0%,0%);stroke-opacity:1;stroke-miterlimit:10;" d="M 154.617188 132.15625 L 164.921875 120.875 "/>
<path style="fill:none;stroke-width:1.2;stroke-linecap:butt;stroke-linejoin:miter;stroke:rgb(100%,0%,0%);stroke-opacity:1;stroke-miterlimit:10;" d="M 164.921875 120.875 L 175.222656 109.59375 "/>
<path style="fill:none;stroke-width:1.2;stroke-linecap:butt;stroke-linejoin:miter;stroke:rgb(0%,0%,0%);stroke-opacity:1;stroke-miterlimit:10;" d="M 124.777344 125.589844 L 115.539062 96.464844 "/>
<path style="fill:none;stroke-width:1.2;stroke-linecap:butt;stroke-linejoin:miter;stroke:rgb(0%,0%,0%);stroke-opacity:1;stroke-miterlimit:10;" d="M 124.777344 125.589844 L 104.171875 148.152344 "/>
<path style="fill:none;stroke-width:1.2;stroke-linecap:butt;stroke-linejoin:miter;stroke:rgb(0%,0%,0%);stroke-opacity:1;stroke-miterlimit:10;" d="M 104.171875 148.152344 L 74.328125 141.589844 "/>
<path style="fill:none;stroke-width:1.2;stroke-linecap:butt;stroke-linejoin:miter;stroke:rgb(0%,0%,0%);stroke-opacity:1;stroke-miterlimit:10;" d="M 104.171875 148.152344 L 108.789062 162.714844 "/>
<path style="fill:none;stroke-width:1.2;stroke-linecap:butt;stroke-linejoin:miter;stroke:rgb(100%,0%,0%);stroke-opacity:1;stroke-miterlimit:10;" d="M 108.789062 162.714844 L 113.40625 177.277344 "/>
<path style="fill:none;stroke-width:1.2;stroke-linecap:butt;stroke-linejoin:miter;stroke:rgb(0%,0%,0%);stroke-opacity:1;stroke-miterlimit:10;" d="M 74.328125 141.589844 L 53.722656 164.152344 "/>
<path style="fill:none;stroke-width:1.2;stroke-linecap:butt;stroke-linejoin:miter;stroke:rgb(0%,0%,0%);stroke-opacity:1;stroke-miterlimit:10;" d="M 74.328125 141.589844 L 65.09375 112.460938 "/>
<path style="fill:none;stroke-width:1.2;stroke-linecap:butt;stroke-linejoin:miter;stroke:rgb(0%,0%,0%);stroke-opacity:1;stroke-miterlimit:10;" d="M 67.746094 114.886719 L 78.050781 103.605469 "/>
<path style="fill:none;stroke-width:1.2;stroke-linecap:butt;stroke-linejoin:miter;stroke:rgb(100%,0%,0%);stroke-opacity:1;stroke-miterlimit:10;" d="M 78.050781 103.605469 L 88.351562 92.324219 "/>
<path style="fill:none;stroke-width:1.2;stroke-linecap:butt;stroke-linejoin:miter;stroke:rgb(0%,0%,0%);stroke-opacity:1;stroke-miterlimit:10;" d="M 62.4375 110.039062 L 72.742188 98.757812 "/>
<path style="fill:none;stroke-width:1.2;stroke-linecap:butt;stroke-linejoin:miter;stroke:rgb(100%,0%,0%);stroke-opacity:1;stroke-miterlimit:10;" d="M 72.742188 98.757812 L 83.042969 87.476562 "/>
<path style="fill:none;stroke-width:1.2;stroke-linecap:butt;stroke-linejoin:miter;stroke:rgb(0%,0%,0%);stroke-opacity:1;stroke-miterlimit:10;" d="M 65.09375 112.460938 L 35.25 105.898438 "/>
<path style=" stroke:none;fill-rule:nonzero;fill:rgb(100%,100%,100%);fill-opacity:1;" d="M 80.699219 82.902344 L 90.699219 82.902344 L 90.699219 96.902344 L 80.699219 96.902344 Z M 80.699219 82.902344 "/>
<g style="fill:rgb(100%,0%,0%);fill-opacity:1;">
  <use xlink:href="#glyph0-1" x="80.699219" y="94.041016"/>
</g>
<path style="fill:none;stroke-width:1.2;stroke-linecap:butt;stroke-linejoin:miter;stroke:rgb(100%,0%,0%);stroke-opacity:1;stroke-miterlimit:10;" d="M 113.40625 177.277344 L 103.105469 188.558594 "/>
<path style="fill:none;stroke-width:1.2;stroke-linecap:butt;stroke-linejoin:miter;stroke:rgb(0%,0%,0%);stroke-opacity:1;stroke-miterlimit:10;" d="M 103.105469 188.558594 L 92.800781 199.839844 "/>
<path style=" stroke:none;fill-rule:nonzero;fill:rgb(100%,100%,100%);fill-opacity:1;" d="M 108.40625 170.277344 L 118.40625 170.277344 L 118.40625 184.277344 L 108.40625 184.277344 Z M 108.40625 170.277344 "/>
<g style="fill:rgb(100%,0%,0%);fill-opacity:1;">
  <use xlink:href="#glyph0-1" x="108.40625" y="181.416016"/>
</g>
<path style="fill:none;stroke-width:1.2;stroke-linecap:butt;stroke-linejoin:miter;stroke:rgb(100%,0%,0%);stroke-opacity:1;stroke-miterlimit:10;" d="M 175.222656 109.59375 L 170.605469 95.03125 "/>
<path style="fill:none;stroke-width:1.2;stroke-linecap:butt;stroke-linejoin:miter;stroke:rgb(0%,0%,0%);stroke-opacity:1;stroke-miterlimit:10;" d="M 170.605469 95.03125 L 165.988281 80.46875 "/>
<path style=" stroke:none;fill-rule:nonzero;fill:rgb(100%,100%,100%);fill-opacity:1;" d="M 170.222656 102.59375 L 180.222656 102.59375 L 180.222656 116.59375 L 170.222656 116.59375 Z M 170.222656 102.59375 "/>
<g style="fill:rgb(100%,0%,0%);fill-opacity:1;">
  <use xlink:href="#glyph0-1" x="170.222656" y="113.732422"/>
</g>
</g>
</svg>

<svg xmlns="http://www.w3.org/2000/svg" xmlns:xlink="http://www.w3.org/1999/xlink" width="300pt" height="300pt" viewBox="0 0 300 300"><defs><symbol overflow="visible"><path d="M.594 2.125V-8.47h6V2.126zm.672-.672h4.671V-7.78h-4.67zm0 0"/></symbol><symbol overflow="visible" id="a"><path d="M4.734-7.953c-.867 0-1.554.324-2.062.97-.5.635-.75 1.51-.75 2.624 0 1.094.25 1.965.75 2.61.508.637 1.195.953 2.062.953.852 0 1.532-.316 2.032-.953.507-.645.765-1.516.765-2.61 0-1.113-.257-1.988-.764-2.624-.5-.645-1.18-.97-2.032-.97zm0-.953c1.22 0 2.192.414 2.922 1.234.74.824 1.11 1.93 1.11 3.313 0 1.376-.37 2.477-1.11 3.298C6.926-.24 5.953.17 4.734.17c-1.23 0-2.214-.41-2.953-1.234C1.04-1.882.673-2.984.673-4.36c0-1.382.367-2.488 1.11-3.312.738-.82 1.722-1.234 2.952-1.234zm0 0"/></symbol></defs><g><path fill="#fff" d="M0 0h300v300H0z"/><path d="M143.25 183.844l20.605-22.563M163.855 161.28l29.84 6.564M163.855 161.28l-9.238-29.124M193.695 167.844L214.3 145.28M193.695 167.844l4.62 14.562" stroke-width="1.2" stroke="#000" stroke-miterlimit="10" fill="none"/><path d="M198.316 182.406l4.618 14.567" stroke-width="1.2" stroke="#f00" stroke-miterlimit="10" fill="none"/><path d="M214.3 145.28l-9.234-29.124M220.23 140.195l-7.386-23.3M244.145 151.848L214.3 145.28M205.066 116.156l20.606-22.562M225.672 93.594l29.84 6.566M227.11 101.273l23.874 5.25M255.512 100.16l9.238 29.125M264.75 129.285l-20.605 22.563M257.38 126.69l-16.485 18.052" stroke-width="1.2" stroke="#000" stroke-miterlimit="10" fill="none"/><path d="M202.934 196.973l-10.305 11.28" stroke-width="1.2" stroke="#f00" stroke-miterlimit="10" fill="none"/><path d="M192.63 208.254l-10.302 11.277" stroke-width="1.2" stroke="#000" stroke-miterlimit="10" fill="none"/><path d="M197.934 189.973h10v14h-10zm0 0" fill="#fff"/><use xlink:href="#a" x="197.934" y="201.111" fill="#f00"/><path d="M154.617 132.156l-29.84-6.566M154.617 132.156l10.305-11.28" stroke-width="1.2" stroke="#000" stroke-miterlimit="10" fill="none"/><path d="M164.922 120.875l10.3-11.28" stroke-width="1.2" stroke="#f00" stroke-miterlimit="10" fill="none"/><path d="M124.777 125.59l-9.238-29.125M124.777 125.59l-20.605 22.562M104.172 148.152l-29.844-6.562M104.172 148.152l4.617 14.563" stroke-width="1.2" stroke="#000" stroke-miterlimit="10" fill="none"/><path d="M108.79 162.715l4.616 14.562" stroke-width="1.2" stroke="#f00" stroke-miterlimit="10" fill="none"/><path d="M74.328 141.59l-20.605 22.562M74.328 141.59l-9.234-29.13M67.746 114.887l10.305-11.282" stroke-width="1.2" stroke="#000" stroke-miterlimit="10" fill="none"/><path d="M78.05 103.605l10.302-11.28" stroke-width="1.2" stroke="#f00" stroke-miterlimit="10" fill="none"/><path d="M62.438 110.04l10.304-11.282" stroke-width="1.2" stroke="#000" stroke-miterlimit="10" fill="none"/><path d="M72.742 98.758l10.3-11.28" stroke-width="1.2" stroke="#f00" stroke-miterlimit="10" fill="none"/><path d="M65.094 112.46L35.25 105.9" stroke-width="1.2" stroke="#000" stroke-miterlimit="10" fill="none"/><path d="M80.7 82.902h10v14h-10zm0 0" fill="#fff"/><use xlink:href="#a" x="80.699" y="94.041" fill="#f00"/><path d="M113.406 177.277l-10.3 11.282" stroke-width="1.2" stroke="#f00" stroke-miterlimit="10" fill="none"/><path d="M103.105 188.56L92.8 199.84" stroke-width="1.2" stroke="#000" stroke-miterlimit="10" fill="none"/><path d="M108.406 170.277h10v14h-10zm0 0" fill="#fff"/><use xlink:href="#a" x="108.406" y="181.416" fill="#f00"/><path d="M175.223 109.594l-4.618-14.563" stroke-width="1.2" stroke="#f00" stroke-miterlimit="10" fill="none"/><path d="M170.605 95.03l-4.617-14.56" stroke-width="1.2" stroke="#000" stroke-miterlimit="10" fill="none"/><path d="M170.223 102.594h10v14h-10zm0 0" fill="#fff"/><use xlink:href="#a" x="170.223" y="113.732" fill="#f00"/></g></svg>
